X:1
T:Title
%%score { ( 1 3 ) | ( 2 4 ) }
L:1/8
M:6/8
K:F
V:1 treble nm="Grand Piano"
V:3 treble 
V:2 bass 
V:4 bass 
V:1
 z3 z2[Q:1/4=100] c | c2 A B2 d | c3 A2 A | .[FA]3 [EA]2 [EG] | F3- F2 c | c2 A B2 d | c3 A2 A | %7
 G2 e e2 d | [Ec]3- [Ec]2 [Ac] | [Bd]2 [Ac] [GB]2 [^FA] | [GB]3 [EG]2 [EG] | %11
 [Ac]2 [GB] [FA]2 [EG] |[M:5/8] A-A- A3 |[M:1/8] c |[M:3/4] d2 f e2 d | c3 A2 F | %16
 [FA]2 [GB] [FA]2 G |[M:5/8] F-F- F3 |[M:1/8] c |[M:3/4] c2 c d2 c | A6 | A2 A B2 A | F6 | %23
 [EG]2 [EG] [_E^F]2 [=EG] | [Ge]3 [Fd]2 [Ec] | d2 d=B A[DFB] |[M:7/8] [Ec]-[Ec]-[Ec]- [Ec]3 z | %27
[M:3/4] c2 A d2 c | [Fc]3 [EB]2 [GB] | [GB]2 [EG] [CAc]2 [CGB] |[M:5/8] A-A- A3 |[M:1/8] c | %32
[M:3/4] d2 f e2 d | c3 A2 F | [FA]2 [GB] [FA]2 G |[M:13/8] F-F- F3 z z z z z z z2 |] %36
V:2
 z3 z2 [F,A,F] | [F,A,F]2 [F,CF] [F,DF]2 [F,B,F] | [F,A,F]3 [F,CF]2 [F,CF] | %3
 [C,C]2 [C,A,] [C,C]2 [C,B,] | [F,A,]3- [F,A,]2[K:treble] [F,A,F] | %5
 [F,A,F]2 [F,CF] [F,DF]2 [F,B,F] | [F,A,F]3 [F,CF]2 [F,CF] | [G,CE]2 [G,CG] [G,=B,G]2 [G,B,F] | %8
 [C,C]3- [C,C]2 [C,C] | [C,C]2 [C,C] [C,C]2 [C,C] | [C,C]3 [C,C]2 [C,C] | %11
 [C,C]2 [C,C] [C,C]2 [C,C] |[M:5/8][K:treble] [F,CF]-[F,CF]- [F,CF]3 |[M:1/8] [F,A,F] | %14
[M:3/4] [B,F]2 [B,DF] [B,CF]2 [B,F] | [F,A,F]3 [F,CF]2 [F,A,] | [C,C]2 [C,C] [C,C]2 [C,B,C] | %17
[M:5/8] [F,A,C]-[F,A,C]- [F,A,C]3 |[M:1/8] [F,A,F] |[M:3/4] [F,A,F]2 [F,A,F] [F,B,F]2 [F,A,F] | %20
 [F,CF]2 [F,C] [F,C]2 [F,A,C] | [F,CF]2 [F,CF] [F,DF]2 [F,CF] | [F,A,C]2 [F,B,] [F,A,]2 [F,A,C] | %23
 [C,C]2 [C,C] [C,C]2 [C,C] | [C,C]3 [C,G,]2 [C,G,] | z2 z D z2 | %26
[M:7/8][K:bass] C,-C,-C,- C,3 [F,A,F] |[M:3/4] [F,A,F]2 [F,CF] [F,B,F]2 [F,A,F] | %28
 [C,A,]3 [C,G,]2 [C,C] | [C,C]2 [C,C]C, D,E, |[M:5/8][K:treble] [F,CF]-[F,CF]- [F,CF]3 | %31
[M:1/8] [F,A,F] |[M:3/4] [B,F]2 [B,DF] [B,CF]2 [B,F] | [F,A,F]3 [F,CF]2 [F,A,] | %34
 [C,C]2 [C,C] [C,C]2 [C,B,C] |[M:13/8] [F,A,C]-[F,A,C]- [F,A,C]3 z z z z z z z2 |] %36
V:3
 x6 | x6 | x6 | z2 F- F z z | x6 | x6 | x6 | x6 | x6 | x6 | x6 | x6 |[M:5/8] x5 |[M:1/8] x | %14
[M:3/4] x6 | x6 | x6 |[M:5/8] x5 |[M:1/8] x |[M:3/4] x6 | z2 F F2 F | x6 | z2 D C2 F | x6 | x6 | %25
 x6 |[M:7/8] C3 B,3 c |[M:3/4] x6 | x6 | x6 |[M:5/8] x5 |[M:1/8] x |[M:3/4] x6 | x6 | x6 | %35
[M:13/8] x13 |] %36
V:4
 x6 | x6 | x6 | x6 | x5[K:treble] x | x6 | x6 | x6 | x6 | x6 | x6 | x6 |[M:5/8][K:treble] x5 | %13
[M:1/8] x |[M:3/4] x6 | x6 | x6 |[M:5/8] x5 |[M:1/8] x |[M:3/4] x6 | x6 | x6 | x6 | x6 | x6 | %25
 [G,F]2 [G,=B,F][G,F]- [G,CF]G, |[M:7/8][K:bass] x7 |[M:3/4] x6 | x6 | x6 |[M:5/8][K:treble] x5 | %31
[M:1/8] x |[M:3/4] x6 | x6 | x6 |[M:13/8] x13 |] %36

